outputs/icons/hardware/laptop_sharp.svg

<svg xmlns="http://www.w3.org/2000/svg" width="1200" height="1200" fill="none"><g clip-path="url(#a)"><path fill="#000" d="m1000 900 100-100V200H100v600l100 100H0v100h1200V900zM200 300h800v500H200z"/></g><defs><clipPath id="a"><path fill="#fff" d="M0 0h1200v1200H0z"/></clipPath></defs></svg>

<svg width="1200" height="1200" viewBox="0 0 1200 1200" fill="none" xmlns="http://www.w3.org/2000/svg"><g clip-path="url(#clip0_133_27)"><path d="M1000 900L1100 800V200H100V800L200 900H0V1000H1200V900H1000ZM200 300H1000V800H200V300Z" fill="black"/></g><defs><clipPath id="clip0_133_27"><path width="24" fill="white" d="M0 0H1200V1200H0V0z"/></clipPath></defs></svg>
